X:341
T:Two Birds On a Tree
S:Padraig O'Keeffe MS, via 'Music from Sliabh Luachra'
R:Hornpipe
Z:Nigel Gatherer
L:1/8
M:4/4
K:Amix
(3EFG|A2 BA eAAA|(3Bcd AB G2 AG|EA (3AAA BAGA|(3BAB de gedB|
A2 (3ABA eAAA|(3Bcd AB G2 AG|EA (3AAA BAGA|(3BAB dB A2:|
dc|(3BAG Bd g2 ga|(3bag (3agf gedc|(3BAG Bd g2 ga|(3bag (3agf g2 fa|
bagb agef|gedB AE (3EDE|GABd dBeB|dBAB G2:|]
<end>
<start>
